svgs/solid/drone-front.svg

<svg xmlns="http://www.w3.org/2000/svg" viewBox="0 0 640 512"><!-- Font Awesome Pro 6.0.0-alpha2 by @fontawesome - https://fontawesome.com License - https://fontawesome.com/license (Commercial License) --><path d="M288 136.109C288 122.865 277.25 112.119 264 112.119H166.375C163.125 102.497 154.125 96.125 144 96.125S124.875 102.497 121.625 112.119H24C10.75 112.119 0 122.865 0 136.109S10.75 160.1 24 160.1H264C277.25 160.1 288 149.354 288 136.109ZM616.375 112.244L518.625 112.494C515.5 102.622 506.375 96 496 96C485.75 96.125 476.625 102.747 473.625 112.618L375.625 112.993C362.75 113.243 352.5 123.739 352.625 136.609C352.625 149.354 362.875 159.85 375.75 159.975L616.5 159.225C629.5 159.225 640 148.604 640 135.61C640 122.615 629.375 112.119 616.375 112.244ZM472 237.695L375.125 208.706C339.125 197.835 300.75 197.835 264.875 208.706L168 237.695V192.087H120V256.062C120 273.806 134.375 288.05 152 288.05H197.375C167.25 317.414 148.375 356.398 144.125 398.257C143.625 402.755 145.125 407.253 148.125 410.627C151.25 414.001 155.5 416 160.125 416H176.375C184.625 416 191.125 409.378 192 401.131C196.125 364.395 215.625 331.283 245.625 309.792L278.625 342.654C284.625 348.651 292.75 352.025 301.25 352.025H338.75C347.25 352.025 355.375 348.651 361.375 342.654L394.25 309.792C424.375 331.283 443.875 364.395 448 401.131C448.875 409.378 455.375 416 463.625 416H479.875C484.5 416 488.75 414.001 491.875 410.627C494.875 407.253 496.375 402.755 495.875 398.257C491.625 356.398 472.75 317.414 442.625 288.05H488C505.625 288.05 520 273.806 520 256.062V192.087H472V237.695Z"/></svg>

<svg xmlns="http://www.w3.org/2000/svg" viewBox="0 0 640 512"><!--! Font Awesome Pro 6.0.0-alpha3 by @fontawesome - https://fontawesome.com License - https://fontawesome.com/license (Commercial License) --><path d="M288 136.1c0-13.24-10.75-23.99-24-23.99L166.4 112.1C163.1 102.5 154.1 96.06 144 96.06S124.9 102.5 121.6 112.1L24 112.1c-13.25 0-24 10.73-24 23.98s10.75 24.01 24 24.01h240C277.2 160.1 288 149.3 288 136.1zM616.4 112.2l-97.79 .2495C515.5 102.6 506.4 96 496 96c-10.25 .1249-19.42 6.707-22.42 16.58l-98 .3754c-12.87 .2499-23.12 10.75-23 23.62c0 12.75 10.29 23.24 23.17 23.37l240.7-.7498C629.5 159.2 640 148.6 640 135.6C640 122.6 629.4 112.1 616.4 112.2zM472 237.7l-96.88-28.99c-36-10.87-74.42-10.87-110.3 0L168 237.7V192h-48v63.1c0 17.74 14.38 31.99 32 31.99h45.42c-30.13 29.36-49.04 68.36-53.29 110.2c-.5 4.498 1 8.998 4 12.37C151.2 414 155.5 416 160.1 416h16.3C184.6 416 191.1 409.4 192 401.1c4.125-36.74 23.62-69.85 53.62-91.34l33 32.86c6 5.998 14.13 9.372 22.62 9.372h37.5c8.5 0 16.62-3.375 22.62-9.372l32.88-32.86c30.12 21.49 49.58 54.6 53.71 91.34C448.8 409.4 455.3 416 463.6 416h16.32c4.625 0 8.808-1.1 11.93-5.374c3-3.374 4.5-7.874 4-12.37c-4.25-41.86-23.12-80.86-53.25-110.2h45.38c17.62 0 31.1-14.25 31.1-31.99l-.0208-63.1h-48L472 237.7z"/></svg>
